Analysis/images/4-3-1-4-View Rules Class Diagram.svg

<?xml version="1.0" encoding="UTF-8" standalone="no"?>
<svg
   xmlns:dc="http://purl.org/dc/elements/1.1/"
   xmlns:cc="http://creativecommons.org/ns#"
   xmlns:rdf="http://www.w3.org/1999/02/22-rdf-syntax-ns#"
   xmlns:svg="http://www.w3.org/2000/svg"
   xmlns="http://www.w3.org/2000/svg"
   xmlns:xlink="http://www.w3.org/1999/xlink"
   xmlns:sodipodi="http://sodipodi.sourceforge.net/DTD/sodipodi-0.dtd"
   xmlns:inkscape="http://www.inkscape.org/namespaces/inkscape"
   color-rendering="auto"
   color-interpolation="auto"
   text-rendering="auto"
   width="102.86392"
   stroke-miterlimit="10"
   shape-rendering="auto"
   font-weight="normal"
   viewBox="0 0 109.72152 79.088607"
   height="74.145569"
   font-style="normal"
   font-size="12"
   image-rendering="auto"
   id="svg6791"
   version="1.1"
   inkscape:version="0.48.4 r9939"
   sodipodi:docname="4-3-1-4-View Rules Class Diagram.svg"
   style="font-size:12px;font-style:normal;font-weight:normal;fill:#000000;fill-opacity:1;stroke:#000000;stroke-width:1;stroke-linecap:square;stroke-linejoin:miter;stroke-miterlimit:10;stroke-opacity:1;stroke-dasharray:none;stroke-dashoffset:0;font-family:Arial">
  <metadata
     id="metadata6833">
    <rdf:RDF>
      <cc:Work
         rdf:about="">
        <dc:format>image/svg+xml</dc:format>
        <dc:type
           rdf:resource="http://purl.org/dc/dcmitype/StillImage" />
      </cc:Work>
    </rdf:RDF>
  </metadata>
  <sodipodi:namedview
     pagecolor="#ffffff"
     bordercolor="#666666"
     borderopacity="1"
     objecttolerance="10"
     gridtolerance="10"
     guidetolerance="10"
     inkscape:pageopacity="0"
     inkscape:pageshadow="2"
     inkscape:window-width="1130"
     inkscape:window-height="754"
     id="namedview6831"
     showgrid="false"
     inkscape:zoom="1.5604938"
     inkscape:cx="24.715208"
     inkscape:cy="31.523001"
     inkscape:window-x="0"
     inkscape:window-y="0"
     inkscape:window-maximized="0"
     inkscape:current-layer="g6811"
     fit-margin-top="0"
     fit-margin-left="0"
     fit-margin-right="0"
     fit-margin-bottom="0" />
  <!--Generated by the Batik Graphics2D SVG Generator
 This is MagicDraw diagram.-->
  <defs
     id="genericDefs" />
  <g
     id="g6794"
     transform="translate(0,4.999999)">
    <defs
       id="defs1">
      <linearGradient
         x1="50"
         gradientUnits="userSpaceOnUse"
         x2="138"
         y1="50"
         y2="101"
         id="linearGradient1"
         spreadMethod="pad">
        <stop
           stop-opacity="1"
           stop-color="rgb(205,215,235)"
           offset="0%"
           id="stop6798" />
        <stop
           stop-opacity="1"
           stop-color="white"
           offset="100%"
           id="stop6800" />
      </linearGradient>
      <clipPath
         clipPathUnits="userSpaceOnUse"
         id="clipPath1">
        <path
           d="m 0,-5 148,0 0,116 L 0,111 0,-5 z"
           id="path6803"
           inkscape:connector-curvature="0" />
      </clipPath>
      <clipPath
         clipPathUnits="userSpaceOnUse"
         id="clipPath2">
        <path
           d="m 40,35 148,0 0,116 -148,0 0,-116 z"
           id="path6806"
           inkscape:connector-curvature="0" />
      </clipPath>
      <clipPath
         clipPathUnits="userSpaceOnUse"
         id="clipPath3">
        <path
           d="m -79,-18 148,0 0,116 -148,0 0,-116 z"
           id="path6809"
           inkscape:connector-curvature="0" />
      </clipPath>
    </defs>
    <g
       id="g6811"
       style="fill:#ffffff;stroke:#ffffff">
      <rect
         x="0"
         width="148"
         height="116"
         y="-5"
         clip-path="url(#clipPath1)"
         id="rect6813"
         transform="matrix(0.74136161,0,0,0.68179834,0,-1.5910083)"
         style="stroke:none" />
      <rect
         x="53"
         y="53"
         transform="translate(-40,-40)"
         clip-path="url(#clipPath2)"
         width="88"
         text-rendering="geometricPrecision"
         height="51"
         id="rect6815"
         style="fill:#b2b2b2;stroke:none" />
      <rect
         x="50"
         y="50"
         transform="translate(-40,-40)"
         clip-path="url(#clipPath2)"
         width="88"
         text-rendering="geometricPrecision"
         height="51"
         id="rect6817"
         style="fill:url(#linearGradient1);stroke:none" />
    </g>
    <g
       text-rendering="geometricPrecision"
       transform="translate(-40,-40)"
       id="g6819"
       style="fill:#5c7199;stroke:#5c7199;stroke-linecap:butt;stroke-linejoin:round">
      <rect
         x="50"
         width="88"
         height="51"
         y="50"
         clip-path="url(#clipPath2)"
         id="rect6821"
         style="fill:none" />
      <line
         y2="68"
         x1="50"
         clip-path="url(#clipPath2)"
         x2="138"
         y1="68"
         id="line6823"
         style="fill:none" />
      <path
         d="m 53.8125,63.4978 0,-7.875 3.3437,0 q 1.2657,0 1.836,0.2109 0.5703,0.211 0.914,0.7579 0.3438,0.5468 0.3438,1.2343 0,0.8907 -0.5234,1.4688 -0.5235,0.5781 -1.5547,0.7344 0.5156,0.2968 0.8515,0.6562 0.336,0.3594 0.8985,1.2813 l 0.9687,1.5312 -1.9062,0 -1.1563,-1.7187 q -0.6093,-0.9063 -0.8359,-1.1485 -0.2266,-0.2422 -0.4766,-0.3281 -0.25,-0.0859 -0.7968,-0.0859 l -0.3282,0 0,3.2812 -1.5781,0 z m 1.5781,-4.5469 1.1875,0 q 1.1407,0 1.4219,-0.0937 0.2812,-0.0938 0.4453,-0.3281 0.1641,-0.2344 0.1641,-0.5938 0,-0.4062 -0.211,-0.6484 -0.2109,-0.2422 -0.6015,-0.3047 -0.1875,-0.0313 -1.1563,-0.0313 l -1.25,0 0,2 z m 9.1563,4.5469 0,-0.8594 q -0.3125,0.4688 -0.8203,0.7266 -0.5078,0.2578 -1.0704,0.2578 -0.5781,0 -1.0312,-0.25 -0.4531,-0.25 -0.6641,-0.7109 Q 60.75,62.2009 60.75,61.4041 l 0,-3.6094 1.5156,0 0,2.625 q 0,1.2031 0.086,1.4687 0.0859,0.2657 0.3046,0.4297 0.2188,0.1641 0.5626,0.1641 0.375,0 0.6874,-0.211 0.3126,-0.2109 0.4219,-0.5312 0.1094,-0.3203 0.1094,-1.5391 l 0,-2.4062 1.5156,0 0,5.7031 -1.4062,0 z m 3.25,0 0,-7.875 1.5,0 0,7.875 -1.5,0 z m 6.2969,-1.8125 1.5,0.25 q -0.2813,0.8281 -0.9063,1.2578 -0.625,0.4297 -1.5781,0.4297 -1.4844,0 -2.2032,-0.9687 -0.5624,-0.7813 -0.5624,-1.9688 0,-1.4219 0.7421,-2.2187 0.7422,-0.7969 1.8829,-0.7969 1.2656,0 2,0.8359 0.7343,0.836 0.7031,2.5703 l -3.7813,0 q 0.0156,0.6719 0.3672,1.0469 0.3516,0.375 0.8672,0.375 0.3594,0 0.6016,-0.1953 0.2422,-0.1953 0.3672,-0.6172 z m 0.0781,-1.5312 q -0.0157,-0.6563 -0.336,-0.9922 -0.3203,-0.336 -0.7734,-0.336 -0.5,0 -0.8281,0.3594 -0.3125,0.3594 -0.3125,0.9688 l 2.25,0 z m 3.0937,1.7187 1.5,-0.2344 q 0.1094,0.4375 0.3985,0.6641 0.289,0.2266 0.8203,0.2266 0.5937,0 0.8906,-0.2032 0.2031,-0.1562 0.2031,-0.4062 0,-0.1719 -0.1093,-0.2813 -0.125,-0.1093 -0.5157,-0.2031 -1.8125,-0.4062 -2.3125,-0.7344 -0.6718,-0.4687 -0.6718,-1.2812 0,-0.75 0.5859,-1.25 0.5859,-0.5 1.8203,-0.5 1.1719,0 1.7344,0.375 0.5625,0.375 0.7812,1.125 l -1.4218,0.2656 q -0.0938,-0.3281 -0.3438,-0.5078 -0.25,-0.1797 -0.7344,-0.1797 -0.5937,0 -0.8437,0.1719 -0.1719,0.1094 -0.1719,0.2969 0,0.1718 0.1406,0.2812 0.2032,0.1563 1.4141,0.4297 1.2109,0.2734 1.6797,0.6641 0.4844,0.4062 0.4844,1.125 0,0.7812 -0.6563,1.3437 -0.6563,0.5625 -1.9531,0.5625 -1.1563,0 -1.836,-0.4687 -0.6796,-0.4688 -0.8828,-1.2813 z m 12.5469,1.625 -2.8125,-7.875 1.7188,0 2,5.8281 1.9218,-5.8281 1.6875,0 -2.8281,7.875 -1.6875,0 z m 5.9844,-6.4844 0,-1.3906 1.5,0 0,1.3906 -1.5,0 z m 0,6.4844 0,-5.7031 1.5,0 0,5.7031 -1.5,0 z m 6.2969,-1.8125 1.5,0.25 q -0.2813,0.8281 -0.9063,1.2578 -0.625,0.4297 -1.5781,0.4297 -1.4844,0 -2.2032,-0.9687 -0.5624,-0.7813 -0.5624,-1.9688 0,-1.4219 0.7421,-2.2187 0.7422,-0.7969 1.8829,-0.7969 1.2656,0 2,0.8359 0.7343,0.836 0.7031,2.5703 l -3.7813,0 q 0.0156,0.6719 0.3672,1.0469 0.3516,0.375 0.8672,0.375 0.3594,0 0.6016,-0.1953 0.2422,-0.1953 0.3672,-0.6172 z m 0.0781,-1.5312 q -0.0157,-0.6563 -0.336,-0.9922 -0.3203,-0.336 -0.7734,-0.336 -0.5,0 -0.8281,0.3594 -0.3125,0.3594 -0.3125,0.9688 l 2.25,0 z m 4.6875,3.3437 -1.8125,-5.7031 1.4687,0 1.0625,3.7344 0.9844,-3.7344 1.4531,0 0.9532,3.7344 1.0937,-3.7344 1.4844,0 -1.8281,5.7031 -1.4532,0 -0.9844,-3.6719 -0.9687,3.6719 -1.4531,0 z"
         clip-path="url(#clipPath2)"
         id="path6825"
         inkscape:connector-curvature="0"
         style="fill:#000000;stroke:none" />
    </g>
    <g
       text-rendering="geometricPrecision"
       transform="translate(79.341772,9.8413507)"
       id="g6827"
       style="stroke-linecap:butt;stroke-linejoin:round">
      <image
         x="0"
         y="0"
         clip-path="url(#clipPath3)"
         width="16"
         xlink:href="data:image/png;base64,iVBORw0KGgoAAAANSUhEUgAAABAAAAAQCAYAAAAf8/9hAAACR0lEQVR42q1Tz2sT QRR+2Z3NbOJuEtNEmzSJKI3xoKciqAcJ3hOkEBQ86UlvglDFP0ER9R/wJESI7iWH oKcE9FDwIEUhJF5SxKbt2kOyyf7MrjPTdA1NPQg+eLOzzLzvfe97bwD+wTzPk+B/ W4AupVIpUa/X1dmDcrm87LpuhuM4DWPcrtVq2lEAaPp9Svx2sVhE0Wh8LR7PPZLk kzIOHgPXdUDTdt3V1RtvdH3wsNFo/JgF4OlSKBSup9Pp9+ml/Ho+X7yVSOZxOBwH jCUQxQhEIqlAMrl8wXPtu5lMUul0OuocQCyWenC2cO1ikGQ9yjiOh1gsK9j2+E4q FX/V7XZZSdz0/HQut3KZ54PA8xy5HPiraJnsSlgU5Wc+MBMC4fOLqVMkQ9j3SCRE 6AtzADRJInHmZqVSkXwRMQ7FotEQBIOIMSD9BsdxwTRtEAQeRiOTiOn5IJKU5Pr9 b+fI9jPaZyDwNCPGiOx5BmDbE9B1npVDfkknjBk9EAF0/zDwPMeSZTEYCgkkI2IA hmETNvvBlI1lOcypOY5J76g+gGGMd0URLckyrRsxugdMLGvCSqOlHAAMBj+10WjU 9kW0LHOj3f4CjAEJpAEUiAYhxDEmVBtqpjmEvb3e82az6cy2cbvV/PByZ2cbPP/h HHaPMJtAr7f+lQA/mRskRXl3zzLHxwVBvLSwcIJpoOvW1G3Y2tqEbqe1oY9/XVUU ZXD4LTBBqtXqfU3T3n762Hq8uJi9QuYjSgBMVe1/V9XNF8Ph8DWhbszOxW/3Qfj1 GbtzwQAAAABJRU5ErkJggg=="
         height="16"
         preserveAspectRatio="none"
         id="image6829" />
    </g>
  </g>
</svg>

<?xml version="1.0" encoding="UTF-8"?>
<!DOCTYPE svg PUBLIC '-//W3C//DTD SVG 1.0//EN'
          'http://www.w3.org/TR/2001/REC-SVG-20010904/DTD/svg10.dtd'>
<svg fill-opacity="1" xmlns:xlink="http://www.w3.org/1999/xlink" color-rendering="auto" color-interpolation="auto" stroke="black" text-rendering="auto" stroke-linecap="square" width="1.125in" stroke-miterlimit="10" stroke-opacity="1" shape-rendering="auto" fill="black" stroke-dasharray="none" font-weight="normal" stroke-width="1" viewBox="0 0 108 71" height="0.7395833333333334in" xmlns="http://www.w3.org/2000/svg" font-family="&apos;Arial&apos;" font-style="normal" stroke-linejoin="miter" font-size="12" stroke-dashoffset="0" image-rendering="auto"
><!--Generated by the Batik Graphics2D SVG Generator
 This is MagicDraw diagram.--><defs id="genericDefs"
  /><g
  ><defs id="defs1"
    ><linearGradient x1="50" gradientUnits="userSpaceOnUse" x2="138" y1="50" y2="101" id="linearGradient1" spreadMethod="pad"
      ><stop stop-opacity="1" stop-color="rgb(205,215,235)" offset="0%"
        /><stop stop-opacity="1" stop-color="white" offset="100%"
      /></linearGradient
      ><clipPath clipPathUnits="userSpaceOnUse" id="clipPath1"
      ><path d="M0 -5 L148 -5 L148 111 L0 111 L0 -5 Z"
      /></clipPath
      ><clipPath clipPathUnits="userSpaceOnUse" id="clipPath2"
      ><path d="M40 35 L188 35 L188 151 L40 151 L40 35 Z"
      /></clipPath
      ><clipPath clipPathUnits="userSpaceOnUse" id="clipPath3"
      ><path d="M-79 -18 L69 -18 L69 98 L-79 98 L-79 -18 Z"
      /></clipPath
    ></defs
    ><g fill="white" stroke="white"
    ><rect x="0" width="148" height="116" y="-5" clip-path="url(#clipPath1)" stroke="none"
      /><rect x="53" y="53" transform="translate(-40,-40)" clip-path="url(#clipPath2)" fill="rgb(178,178,178)" width="88" text-rendering="geometricPrecision" height="51" stroke="none"
      /><rect x="50" y="50" transform="translate(-40,-40)" clip-path="url(#clipPath2)" fill="url(#linearGradient1)" width="88" text-rendering="geometricPrecision" height="51" stroke="none"
    /></g
    ><g fill="rgb(92,113,153)" text-rendering="geometricPrecision" transform="translate(-40,-40)" stroke-linejoin="round" stroke-linecap="butt" stroke="rgb(92,113,153)"
    ><rect fill="none" x="50" width="88" height="51" y="50" clip-path="url(#clipPath2)"
      /><line y2="68" fill="none" x1="50" clip-path="url(#clipPath2)" x2="138" y1="68"
      /><path fill="black" d="M53.8125 63.4978 L53.8125 55.6228 L57.1562 55.6228 Q58.4219 55.6228 58.9922 55.8337 Q59.5625 56.0447 59.9062 56.5916 Q60.25 57.1384 60.25 57.8259 Q60.25 58.7166 59.7266 59.2947 Q59.2031 59.8728 58.1719 60.0291 Q58.6875 60.3259 59.0234 60.6853 Q59.3594 61.0447 59.9219 61.9666 L60.8906 63.4978 L58.9844 63.4978 L57.8281 61.7791 Q57.2188 60.8728 56.9922 60.6306 Q56.7656 60.3884 56.5156 60.3025 Q56.2656 60.2166 55.7188 60.2166 L55.3906 60.2166 L55.3906 63.4978 L53.8125 63.4978 ZM55.3906 58.9509 L56.5781 58.9509 Q57.7188 58.9509 58 58.8572 Q58.2812 58.7634 58.4453 58.5291 Q58.6094 58.2947 58.6094 57.9353 Q58.6094 57.5291 58.3984 57.2869 Q58.1875 57.0447 57.7969 56.9822 Q57.6094 56.9509 56.6406 56.9509 L55.3906 56.9509 L55.3906 58.9509 ZM64.5469 63.4978 L64.5469 62.6384 Q64.2344 63.1072 63.7266 63.365 Q63.2188 63.6228 62.6562 63.6228 Q62.0781 63.6228 61.625 63.3728 Q61.1719 63.1228 60.9609 62.6619 Q60.75 62.2009 60.75 61.4041 L60.75 57.7947 L62.2656 57.7947 L62.2656 60.4197 Q62.2656 61.6228 62.3516 61.8884 Q62.4375 62.1541 62.6562 62.3181 Q62.875 62.4822 63.2188 62.4822 Q63.5938 62.4822 63.9062 62.2712 Q64.2188 62.0603 64.3281 61.74 Q64.4375 61.4197 64.4375 60.2009 L64.4375 57.7947 L65.9531 57.7947 L65.9531 63.4978 L64.5469 63.4978 ZM67.7969 63.4978 L67.7969 55.6228 L69.2969 55.6228 L69.2969 63.4978 L67.7969 63.4978 ZM74.0938 61.6853 L75.5938 61.9353 Q75.3125 62.7634 74.6875 63.1931 Q74.0625 63.6228 73.1094 63.6228 Q71.625 63.6228 70.9062 62.6541 Q70.3438 61.8728 70.3438 60.6853 Q70.3438 59.2634 71.0859 58.4666 Q71.8281 57.6697 72.9688 57.6697 Q74.2344 57.6697 74.9688 58.5056 Q75.7031 59.3416 75.6719 61.0759 L71.8906 61.0759 Q71.9062 61.7478 72.2578 62.1228 Q72.6094 62.4978 73.125 62.4978 Q73.4844 62.4978 73.7266 62.3025 Q73.9688 62.1072 74.0938 61.6853 ZM74.1719 60.1541 Q74.1562 59.4978 73.8359 59.1619 Q73.5156 58.8259 73.0625 58.8259 Q72.5625 58.8259 72.2344 59.1853 Q71.9219 59.5447 71.9219 60.1541 L74.1719 60.1541 ZM77.2656 61.8728 L78.7656 61.6384 Q78.875 62.0759 79.1641 62.3025 Q79.4531 62.5291 79.9844 62.5291 Q80.5781 62.5291 80.875 62.3259 Q81.0781 62.1697 81.0781 61.9197 Q81.0781 61.7478 80.9688 61.6384 Q80.8438 61.5291 80.4531 61.4353 Q78.6406 61.0291 78.1406 60.7009 Q77.4688 60.2322 77.4688 59.4197 Q77.4688 58.6697 78.0547 58.1697 Q78.6406 57.6697 79.875 57.6697 Q81.0469 57.6697 81.6094 58.0447 Q82.1719 58.4197 82.3906 59.1697 L80.9688 59.4353 Q80.875 59.1072 80.625 58.9275 Q80.375 58.7478 79.8906 58.7478 Q79.2969 58.7478 79.0469 58.9197 Q78.875 59.0291 78.875 59.2166 Q78.875 59.3884 79.0156 59.4978 Q79.2188 59.6541 80.4297 59.9275 Q81.6406 60.2009 82.1094 60.5916 Q82.5938 60.9978 82.5938 61.7166 Q82.5938 62.4978 81.9375 63.0603 Q81.2812 63.6228 79.9844 63.6228 Q78.8281 63.6228 78.1484 63.1541 Q77.4688 62.6853 77.2656 61.8728 ZM89.8125 63.4978 L87 55.6228 L88.7188 55.6228 L90.7188 61.4509 L92.6406 55.6228 L94.3281 55.6228 L91.5 63.4978 L89.8125 63.4978 ZM95.7969 57.0134 L95.7969 55.6228 L97.2969 55.6228 L97.2969 57.0134 L95.7969 57.0134 ZM95.7969 63.4978 L95.7969 57.7947 L97.2969 57.7947 L97.2969 63.4978 L95.7969 63.4978 ZM102.0938 61.6853 L103.5938 61.9353 Q103.3125 62.7634 102.6875 63.1931 Q102.0625 63.6228 101.1094 63.6228 Q99.625 63.6228 98.9062 62.6541 Q98.3438 61.8728 98.3438 60.6853 Q98.3438 59.2634 99.0859 58.4666 Q99.8281 57.6697 100.9688 57.6697 Q102.2344 57.6697 102.9688 58.5056 Q103.7031 59.3416 103.6719 61.0759 L99.8906 61.0759 Q99.9062 61.7478 100.2578 62.1228 Q100.6094 62.4978 101.125 62.4978 Q101.4844 62.4978 101.7266 62.3025 Q101.9688 62.1072 102.0938 61.6853 ZM102.1719 60.1541 Q102.1562 59.4978 101.8359 59.1619 Q101.5156 58.8259 101.0625 58.8259 Q100.5625 58.8259 100.2344 59.1853 Q99.9219 59.5447 99.9219 60.1541 L102.1719 60.1541 ZM106.8594 63.4978 L105.0469 57.7947 L106.5156 57.7947 L107.5781 61.5291 L108.5625 57.7947 L110.0156 57.7947 L110.9688 61.5291 L112.0625 57.7947 L113.5469 57.7947 L111.7188 63.4978 L110.2656 63.4978 L109.2812 59.8259 L108.3125 63.4978 L106.8594 63.4978 Z" clip-path="url(#clipPath2)" stroke="none"
    /></g
    ><g text-rendering="geometricPrecision" transform="matrix(1,0,0,1,79,13)" stroke-linecap="butt" stroke-linejoin="round"
    ><image x="0" y="0" clip-path="url(#clipPath3)" width="16" xlink:href="data:image/png;base64,iVBORw0KGgoAAAANSUhEUgAAABAAAAAQCAYAAAAf8/9hAAACR0lEQVR42q1Tz2sT
QRR+2Z3NbOJuEtNEmzSJKI3xoKciqAcJ3hOkEBQ86UlvglDFP0ER9R/wJESI7iWH
oKcE9FDwIEUhJF5SxKbt2kOyyf7MrjPTdA1NPQg+eLOzzLzvfe97bwD+wTzPk+B/
W4AupVIpUa/X1dmDcrm87LpuhuM4DWPcrtVq2lEAaPp9Svx2sVhE0Wh8LR7PPZLk
kzIOHgPXdUDTdt3V1RtvdH3wsNFo/JgF4OlSKBSup9Pp9+ml/Ho+X7yVSOZxOBwH
jCUQxQhEIqlAMrl8wXPtu5lMUul0OuocQCyWenC2cO1ikGQ9yjiOh1gsK9j2+E4q
FX/V7XZZSdz0/HQut3KZ54PA8xy5HPiraJnsSlgU5Wc+MBMC4fOLqVMkQ9j3SCRE
6AtzADRJInHmZqVSkXwRMQ7FotEQBIOIMSD9BsdxwTRtEAQeRiOTiOn5IJKU5Pr9
b+fI9jPaZyDwNCPGiOx5BmDbE9B1npVDfkknjBk9EAF0/zDwPMeSZTEYCgkkI2IA
hmETNvvBlI1lOcypOY5J76g+gGGMd0URLckyrRsxugdMLGvCSqOlHAAMBj+10WjU
9kW0LHOj3f4CjAEJpAEUiAYhxDEmVBtqpjmEvb3e82az6cy2cbvV/PByZ2cbPP/h
HHaPMJtAr7f+lQA/mRskRXl3zzLHxwVBvLSwcIJpoOvW1G3Y2tqEbqe1oY9/XVUU
ZXD4LTBBqtXqfU3T3n762Hq8uJi9QuYjSgBMVe1/V9XNF8Ph8DWhbszOxW/3Qfj1
GbtzwQAAAABJRU5ErkJggg==" height="16" preserveAspectRatio="none"
    /></g
  ></g
></svg
>
